static/img/kroki/cc7a860be0f2250223d6a020f24e7008.svg

<?xml version="1.0" encoding="us-ascii" standalone="no"?><svg xmlns="http://www.w3.org/2000/svg" xmlns:xlink="http://www.w3.org/1999/xlink" contentStyleType="text/css" height="374px" preserveAspectRatio="none" style="width:298px;height:374px;" version="1.1" viewBox="0 0 298 374" width="298px" zoomAndPan="magnify"><defs/><g><!--class gcp_resource--><g id="elem_gcp_resource"><rect codeLine="23" fill="#3D176E" height="39.7891" id="gcp_resource" rx="2.5" ry="2.5" style="stroke:#000D19;stroke-width:0.5;" width="150" x="74" y="167.79"/><ellipse cx="89" cy="187.6845" fill="#ADD1B2" rx="11" ry="11" style="stroke:#181818;stroke-width:1.0;"/><path d="M91.9688,193.3252 Q91.3906,193.622 90.75,193.7627 Q90.1094,193.9189 89.4063,193.9189 Q86.9063,193.9189 85.5781,192.2783 Q84.2656,190.622 84.2656,187.497 Q84.2656,184.372 85.5781,182.7158 Q86.9063,181.0595 89.4063,181.0595 Q90.1094,181.0595 90.75,181.2158 Q91.4063,181.372 91.9688,181.6689 L91.9688,184.3877 Q91.3438,183.8095 90.75,183.5439 Q90.1563,183.2627 89.5313,183.2627 Q88.1875,183.2627 87.5,184.3408 Q86.8125,185.4033 86.8125,187.497 Q86.8125,189.5908 87.5,190.6689 Q88.1875,191.7314 89.5313,191.7314 Q90.1563,191.7314 90.75,191.4658 Q91.3438,191.1845 91.9688,190.6064 L91.9688,193.3252 Z " fill="#000000"/><text fill="#D9B8FF" font-family="Helvetica" font-size="17" lengthAdjust="spacing" textLength="108" x="108" y="193.5698">gcp_resource</text></g><!--class gcp_vertex_ai_feature_group--><g id="elem_gcp_vertex_ai_feature_group"><rect codeLine="26" fill="#3D176E" height="39.7891" id="gcp_vertex_ai_feature_group" rx="2.5" ry="2.5" style="stroke:#000D19;stroke-width:0.5;" width="284" x="7" y="328.58"/><ellipse cx="22" cy="348.4745" fill="#ADD1B2" rx="11" ry="11" style="stroke:#181818;stroke-width:1.0;"/><path d="M24.9688,354.1152 Q24.3906,354.412 23.75,354.5527 Q23.1094,354.7089 22.4063,354.7089 Q19.9063,354.7089 18.5781,353.0683 Q17.2656,351.412 17.2656,348.287 Q17.2656,345.162 18.5781,343.5058 Q19.9063,341.8495 22.4063,341.8495 Q23.1094,341.8495 23.75,342.0058 Q24.4063,342.162 24.9688,342.4589 L24.9688,345.1777 Q24.3438,344.5995 23.75,344.3339 Q23.1563,344.0527 22.5313,344.0527 Q21.1875,344.0527 20.5,345.1308 Q19.8125,346.1933 19.8125,348.287 Q19.8125,350.3808 20.5,351.4589 Q21.1875,352.5214 22.5313,352.5214 Q23.1563,352.5214 23.75,352.2558 Q24.3438,351.9745 24.9688,351.3964 L24.9688,354.1152 Z " fill="#000000"/><text fill="#D9B8FF" font-family="Helvetica" font-size="17" lengthAdjust="spacing" textLength="242" x="41" y="354.3598">gcp_vertex_ai_feature_group</text></g><!--class resource--><g id="elem_resource"><rect codeLine="29" fill="#3D176E" height="39.7891" id="resource" rx="2.5" ry="2.5" style="stroke:#000D19;stroke-width:0.5;" width="113" x="92.5" y="7"/><ellipse cx="107.5" cy="26.8945" fill="#ADD1B2" rx="11" ry="11" style="stroke:#181818;stroke-width:1.0;"/><path d="M110.4688,32.5352 Q109.8906,32.832 109.25,32.9727 Q108.6094,33.1289 107.9063,33.1289 Q105.4063,33.1289 104.0781,31.4883 Q102.7656,29.832 102.7656,26.707 Q102.7656,23.582 104.0781,21.9258 Q105.4063,20.2695 107.9063,20.2695 Q108.6094,20.2695 109.25,20.4258 Q109.9063,20.582 110.4688,20.8789 L110.4688,23.5977 Q109.8438,23.0195 109.25,22.7539 Q108.6563,22.4727 108.0313,22.4727 Q106.6875,22.4727 106,23.5508 Q105.3125,24.6133 105.3125,26.707 Q105.3125,28.8008 106,29.8789 Q106.6875,30.9414 108.0313,30.9414 Q108.6563,30.9414 109.25,30.6758 Q109.8438,30.3945 110.4688,29.8164 L110.4688,32.5352 Z " fill="#000000"/><text fill="#D9B8FF" font-family="Helvetica" font-size="17" lengthAdjust="spacing" textLength="71" x="126.5" y="32.7798">resource</text></g><!--reverse link resource to gcp_resource--><g id="link_resource_gcp_resource"><path codeLine="32" d="M149,65.05 C149,95.57 149,136.9 149,167.46 " fill="none" id="resource-backto-gcp_resource" style="stroke:#FFAF37;stroke-width:2.0;"/><polygon fill="none" points="149,47.05,143,65.05,155,65.05,149,47.05" style="stroke:#FFAF37;stroke-width:2.0;"/></g><!--reverse link gcp_resource to gcp_vertex_ai_feature_group--><g id="link_gcp_resource_gcp_vertex_ai_feature_group"><path codeLine="33" d="M149,225.84 C149,256.36 149,297.69 149,328.25 " fill="none" id="gcp_resource-backto-gcp_vertex_ai_feature_group" style="stroke:#FFAF37;stroke-width:2.0;"/><polygon fill="none" points="149,207.84,143,225.84,155,225.84,149,207.84" style="stroke:#FFAF37;stroke-width:2.0;"/></g><!--SRC=[XP1FJy904CNl_HIRS2QX4YrDl229qGinuhsPTcVBXdQtcPs2-EUxQqLnsr8uxhpVllTcrbgYmBBYlIYnJ95Su3RQL41GYZcHtIriOKcCb08rZRhYlJLy4LX2YU81Yosopg1BlAnrjZ7edBZof3l8DZdPsiY3FHCOzosXOOzQ5E3Sd9bqMZDwPMISpfJgabtJqLI6qGtsC4iIwHUPJ2OoZBl8nQYpUn-9bNv34Vf7Mrh6NirUn0zrjcL3U2LxY_xfWnsVG4fjSd7jpPuFdSWWjUQhDKYxQsW5XVDZ72EXvNs5YzvM6C-aYax2ZqDma3Md4tbM9OJErfIXU0-2Js- -HM9yJK0d2e5hmgGngdoi_VNuklqOZySjxw0LzAyFP0HV]--></g></svg>

<svg xmlns="http://www.w3.org/2000/svg" width="298" height="374" viewBox="0 0 298 374"><rect width="150" height="39.789" x="74" y="167.79" fill="#3D176E" rx="2.5" ry="2.5" style="stroke:#000d19;stroke-width:.5"/><circle cx="89" cy="187.685" r="11" fill="#ADD1B2" style="stroke:#181818;stroke-width:1"/><path d="M91.969 193.325q-.578.297-1.219.438-.64.156-1.344.156-2.5 0-3.828-1.64-1.312-1.657-1.312-4.782t1.312-4.781q1.328-1.656 3.828-1.656.703 0 1.344.156.656.156 1.219.453v2.719q-.625-.578-1.219-.844-.594-.281-1.219-.281-1.344 0-2.031 1.078-.687 1.062-.687 3.156t.687 3.172q.688 1.062 2.031 1.062.625 0 1.219-.265.594-.281 1.219-.86z"/><text x="108" y="193.57" fill="#D9B8FF" font-family="Helvetica" font-size="17" textLength="108">gcp_resource</text><rect width="284" height="39.789" x="7" y="328.58" fill="#3D176E" rx="2.5" ry="2.5" style="stroke:#000d19;stroke-width:.5"/><circle cx="22" cy="348.474" r="11" fill="#ADD1B2" style="stroke:#181818;stroke-width:1"/><path d="M24.969 354.115q-.578.297-1.219.438-.64.156-1.344.156-2.5 0-3.828-1.64-1.312-1.657-1.312-4.782t1.312-4.781q1.328-1.656 3.828-1.656.703 0 1.344.156.656.156 1.219.453v2.719q-.625-.579-1.219-.844-.594-.281-1.219-.281-1.343 0-2.031 1.078-.687 1.062-.687 3.156t.687 3.172q.688 1.062 2.031 1.062.625 0 1.219-.265.594-.281 1.219-.86z"/><text x="41" y="354.36" fill="#D9B8FF" font-family="Helvetica" font-size="17" textLength="242">gcp_vertex_ai_feature_group</text><rect width="113" height="39.789" x="92.5" y="7" fill="#3D176E" rx="2.5" ry="2.5" style="stroke:#000d19;stroke-width:.5"/><circle cx="107.5" cy="26.895" r="11" fill="#ADD1B2" style="stroke:#181818;stroke-width:1"/><path d="M110.469 32.535q-.578.297-1.219.438-.64.156-1.344.156-2.5 0-3.828-1.64-1.312-1.657-1.312-4.782t1.312-4.781q1.328-1.656 3.828-1.656.703 0 1.344.156.656.156 1.219.453v2.719q-.625-.578-1.219-.844-.594-.281-1.219-.281-1.344 0-2.031 1.078-.687 1.062-.687 3.156t.687 3.172q.688 1.062 2.031 1.062.625 0 1.219-.265.594-.281 1.219-.86z"/><text x="126.5" y="32.78" fill="#D9B8FF" font-family="Helvetica" font-size="17" textLength="71">resource</text><path fill="none" d="M149 65.05v102.41m0-120.41-6 18h12zm0 178.79v102.41m0-120.41-6 18h12z" style="stroke:#ffaf37;stroke-width:2"/></svg>
